; generated by Slic3r 1.3.0 on 2020-03-08 at 14:38:43

; external perimeters extrusion width = 0.55mm (4.37mm^3/s)
; perimeters extrusion width = 0.70mm (11.44mm^3/s)
; infill extrusion width = 0.62mm (13.45mm^3/s)
; solid infill extrusion width = 0.70mm (3.81mm^3/s)
; top infill extrusion width = 0.70mm (2.86mm^3/s)
; support material extrusion width = 0.55mm (8.74mm^3/s)

M107
M104 S200 ; set temperature
G28 ; home all axes
G1 Z5 F5000 ; lift nozzle

; Filament gcode

M109 S200 ; set temperature and wait for it to be reached
G21 ; set units to millimeters
G90 ; use absolute coordinates
M82 ; use absolute distances for extrusion
G92 E0
G1 Z0.350 F7800.000
G1 E-3.00000 F1800.00000
G92 E0
G1 X34.150 Y43.367 F7800.000
G1 E3.00000 F1800.00000
G1 F1800
G1 X34.926 Y42.831 E3.08576
G1 X35.179 Y42.679 E3.11255
G1 X36.021 Y42.246 E3.19872
G1 X36.896 Y41.899 E3.28428
G1 X37.518 Y41.710 E3.34337
G1 X37.804 Y41.638 E3.37015
G1 X38.734 Y41.468 E3.45613
G1 X39.276 Y41.410 E3.50572
G1 X62.570 Y39.896 E5.62832
G1 X63.000 Y39.882 E5.66742
G1 X160.000 Y39.882 E14.48759
G1 X162.259 Y40.279 E14.69613
G1 X164.941 Y42.094 E14.99065
G1 X167.260 Y44.691 E15.30722
G1 X167.816 Y45.394 E15.38873
G1 X168.328 Y46.186 E15.47442
G1 X168.761 Y47.028 E15.56057
G1 X169.108 Y47.903 E15.64616
G1 X169.297 Y48.525 E15.70524
G1 X169.496 Y49.450 E15.79123
G1 X169.603 Y50.389 E15.87718
G1 X169.625 Y51.007 E15.93343
G1 X169.625 Y121.007 E22.29850
G1 X169.586 Y121.864 E22.37656
G1 X166.204 Y161.484 E25.99227
G1 X165.617 Y163.701 E26.20081
G1 X164.308 Y165.585 E26.40936
G1 X162.436 Y166.909 E26.61790
G1 X159.664 Y167.545 E26.87656
G1 X112.659 Y167.971 E31.15084
G1 X72.659 Y167.971 E34.78802
G1 X70.400 Y167.575 E34.99656
G1 X67.759 Y165.806 E35.28559
G1 X32.773 Y127.359 E40.01233
G1 X32.184 Y126.620 E40.09827
G1 X31.672 Y125.828 E40.18402
G1 X31.238 Y124.985 E40.27021
G1 X30.892 Y124.111 E40.35574
G1 X30.703 Y123.489 E40.41482
G1 X30.631 Y123.203 E40.44163
G1 X30.461 Y122.273 E40.52759
G1 X30.397 Y121.625 E40.58680
G1 X30.375 Y121.007 E40.64304
G1 X30.383 Y50.683 E47.03757
G1 X30.461 Y49.741 E47.12354
G1 X30.632 Y48.811 E47.20952
G1 X30.892 Y47.903 E47.29537
G1 X31.239 Y47.028 E47.38093
G1 X31.364 Y46.762 E47.40770
G1 X31.824 Y45.933 E47.49386
G1 X32.360 Y45.157 E47.57963
G1 X32.970 Y44.436 E47.66553
G1 X33.429 Y43.977 E47.72457
G1 X34.092 Y43.414 E47.80363
G1 E44.80363 F1800.00000
G92 E0
G1 X74.259 Y153.259 F7800.000
G1 E3.00000 F1800.00000
G1 F1800
G1 X111.059 Y153.259 E6.34625
G1 X111.059 Y159.747 E6.93614
G1 X74.259 Y159.747 E10.28239
G1 X74.259 Y153.334 E10.86547
G1 X73.634 Y152.635 F7800.000
G1 F1800
G1 X111.684 Y152.635 E14.32536
G1 X111.684 Y160.372 E15.02890
G1 X73.634 Y160.372 E18.48879
G1 X73.634 Y152.710 E19.18551
G1 X73.009 Y152.010 F7800.000
G1 F1800
G1 X112.309 Y152.010 E22.75904
G1 X112.309 Y160.997 E23.57622
G1 X73.009 Y160.997 E27.14975
G1 X73.009 Y152.085 E27.96011
G1 X73.508 Y152.047 F7800.000
G1 E24.96011 F1800.00000
G92 E0
G1 X75.127 Y153.641 F7800.000
G1 E3.00000 F1800.00000
G1 F1800
G1 X74.641 Y154.128 E3.06274
G1 X74.641 Y155.014 E3.14363
G1 X76.014 Y153.641 E3.32078
G1 X76.900 Y153.641 E3.40168
G1 X74.641 Y155.901 E3.69323
G1 X74.641 Y156.788 E3.77412
G1 X77.787 Y153.641 E4.18008
G1 X78.674 Y153.641 E4.26098
G1 X74.641 Y157.674 E4.78134
G1 X74.641 Y158.561 E4.86224
G1 X79.560 Y153.641 E5.49701
G1 X80.447 Y153.641 E5.57791
G1 X74.723 Y159.365 E6.31642
G1 X75.610 Y159.365 E6.39731
G1 X81.334 Y153.641 E7.13582
G1 X82.220 Y153.641 E7.21672
G1 X76.497 Y159.365 E7.95522
G1 X77.383 Y159.365 E8.03612
G1 X83.107 Y153.641 E8.77463
G1 X83.994 Y153.641 E8.85553
G1 X78.270 Y159.365 E9.59403
G1 X79.157 Y159.365 E9.67493
G1 X84.881 Y153.641 E10.41344
G1 X85.767 Y153.641 E10.49433
G1 X80.044 Y159.365 E11.23284
G1 X80.930 Y159.365 E11.31374
G1 X86.654 Y153.641 E12.05224
G1 X87.541 Y153.641 E12.13314
G1 X81.817 Y159.365 E12.87165
G1 X82.704 Y159.365 E12.95255
G1 X88.427 Y153.641 E13.69105
G1 X89.314 Y153.641 E13.77195
G1 X83.590 Y159.365 E14.51046
G1 X84.477 Y159.365 E14.59135
G1 X90.201 Y153.641 E15.32986
G1 X91.087 Y153.641 E15.41076
G1 X85.364 Y159.365 E16.14926
G1 X86.250 Y159.365 E16.23016
G1 X91.974 Y153.641 E16.96867
G1 X92.861 Y153.641 E17.04957
G1 X87.137 Y159.365 E17.78807
G1 X88.024 Y159.365 E17.86897
G1 X93.748 Y153.641 E18.60748
G1 X94.634 Y153.641 E18.68837
G1 X88.911 Y159.365 E19.42688
G1 X89.797 Y159.365 E19.50778
G1 X95.521 Y153.641 E20.24628
G1 X96.408 Y153.641 E20.32718
G1 X90.684 Y159.365 E21.06569
G1 X91.571 Y159.365 E21.14658
G1 X97.294 Y153.641 E21.88509
G1 X98.181 Y153.641 E21.96599
G1 X92.457 Y159.365 E22.70449
G1 X93.344 Y159.365 E22.78539
G1 X99.068 Y153.641 E23.52390
G1 X99.954 Y153.641 E23.60480
G1 X94.231 Y159.365 E24.34330
G1 X95.117 Y159.365 E24.42420
G1 X100.841 Y153.641 E25.16271
G1 X101.728 Y153.641 E25.24360
G1 X96.004 Y159.365 E25.98211
G1 X96.891 Y159.365 E26.06301
G1 X102.614 Y153.641 E26.80151
G1 X103.501 Y153.641 E26.88241
G1 X97.777 Y159.365 E27.62092
G1 X98.664 Y159.365 E27.70182
G1 X104.388 Y153.641 E28.44032
G1 X105.275 Y153.641 E28.52122
G1 X99.551 Y159.365 E29.25973
G1 X100.438 Y159.365 E29.34062
G1 X106.161 Y153.641 E30.07913
G1 X107.048 Y153.641 E30.16003
G1 X101.324 Y159.365 E30.89853
G1 X102.211 Y159.365 E30.97943
G1 X107.935 Y153.641 E31.71794
G1 X108.821 Y153.641 E31.79884
G1 X103.098 Y159.365 E32.53734
G1 X103.984 Y159.365 E32.61824
G1 X109.708 Y153.641 E33.35675
G1 X110.595 Y153.641 E33.43764
G1 X104.871 Y159.365 E34.17615
G1 X105.758 Y159.365 E34.25705
G1 X110.677 Y154.445 E34.89181
G1 X110.677 Y155.332 E34.97271
G1 X106.644 Y159.365 E35.49307
G1 X107.531 Y159.365 E35.57397
G1 X110.677 Y156.219 E35.97992
G1 X110.677 Y157.105 E36.06082
G1 X108.418 Y159.365 E36.35236
G1 X109.305 Y159.365 E36.43326
G1 X110.677 Y157.992 E36.61040
G1 X110.677 Y158.879 E36.69129
G1 X110.191 Y159.365 E36.75403
G1 E33.75403 F1800.00000
G92 E0
G1 X74.505 Y143.151 F7800.000
G1 E3.00000 F1800.00000
G1 F1800
G1 X74.505 Y136.664 E3.58989
G1 X111.306 Y136.664 E6.93614
G1 X111.306 Y143.151 E7.52604
G1 X74.580 Y143.151 E10.86547
G1 X73.880 Y143.776 F7800.000
G1 F1800
G1 X73.880 Y136.039 E11.56900
G1 X111.931 Y136.039 E15.02889
G1 X111.931 Y143.776 E15.73243
G1 X73.955 Y143.776 E19.18550
G1 X73.255 Y144.401 F7800.000
G1 F1800
G1 X73.255 Y135.414 E20.00268
G1 X112.555 Y135.414 E23.57621
G1 X112.555 Y144.401 E24.39339
G1 X73.330 Y144.401 E27.96010
G1 X73.472 Y143.951 F7800.000
G1 E24.96010 F1800.00000
G92 E0
G1 X75.373 Y137.046 F7800.000
G1 E3.00000 F1800.00000
G1 F1800
G1 X74.887 Y137.532 E3.06274
G1 X74.887 Y138.419 E3.14363
G1 X76.260 Y137.046 E3.32078
G1 X77.147 Y137.046 E3.40167
G1 X74.887 Y139.305 E3.69322
G1 X74.887 Y140.192 E3.77412
G1 X78.033 Y137.046 E4.18008
G1 X78.920 Y137.046 E4.26097
G1 X74.887 Y141.079 E4.78134
G1 X74.887 Y141.966 E4.86223
G1 X79.807 Y137.046 E5.49700
G1 X80.693 Y137.046 E5.57790
G1 X74.970 Y142.770 E6.31641
G1 X75.856 Y142.770 E6.39730
G1 X81.580 Y137.046 E7.13581
G1 X82.467 Y137.046 E7.21671
G1 X76.743 Y142.770 E7.95521
G1 X77.630 Y142.770 E8.03611
G1 X83.354 Y137.046 E8.77461
G1 X84.240 Y137.046 E8.85551
G1 X78.517 Y142.770 E9.59402
G1 X79.403 Y142.770 E9.67492
G1 X85.127 Y137.046 E10.41342
G1 X86.014 Y137.046 E10.49432
G1 X80.290 Y142.770 E11.23282
G1 X81.177 Y142.770 E11.31372
G1 X86.900 Y137.046 E12.05223
G1 X87.787 Y137.046 E12.13312
G1 X82.063 Y142.770 E12.87163
G1 X82.950 Y142.770 E12.95253
G1 X88.674 Y137.046 E13.69103
G1 X89.560 Y137.046 E13.77193
G1 X83.837 Y142.770 E14.51044
G1 X84.723 Y142.770 E14.59133
G1 X90.447 Y137.046 E15.32984
G1 X91.334 Y137.046 E15.41074
G1 X85.610 Y142.770 E16.14924
G1 X86.497 Y142.770 E16.23014
G1 X92.220 Y137.046 E16.96864
G1 X93.107 Y137.046 E17.04954
G1 X87.383 Y142.770 E17.78805
G1 X88.270 Y142.770 E17.86894
G1 X93.994 Y137.046 E18.60745
G1 X94.881 Y137.046 E18.68835
G1 X89.157 Y142.770 E19.42685
G1 X90.044 Y142.770 E19.50775
G1 X95.767 Y137.046 E20.24626
G1 X96.654 Y137.046 E20.32715
G1 X90.930 Y142.770 E21.06566
G1 X91.817 Y142.770 E21.14656
G1 X97.541 Y137.046 E21.88506
G1 X98.427 Y137.046 E21.96596
G1 X92.704 Y142.770 E22.70446
G1 X93.590 Y142.770 E22.78536
G1 X99.314 Y137.046 E23.52387
G1 X100.201 Y137.046 E23.60477
G1 X94.477 Y142.770 E24.34327
G1 X95.364 Y142.770 E24.42417
G1 X101.087 Y137.046 E25.16267
G1 X101.974 Y137.046 E25.24357
G1 X96.250 Y142.770 E25.98208
G1 X97.137 Y142.770 E26.06297
G1 X102.861 Y137.046 E26.80148
G1 X103.748 Y137.046 E26.88238
G1 X98.024 Y142.770 E27.62088
G1 X98.911 Y142.770 E27.70178
G1 X104.634 Y137.046 E28.44029
G1 X105.521 Y137.046 E28.52118
G1 X99.797 Y142.770 E29.25969
G1 X100.684 Y142.770 E29.34059
G1 X106.408 Y137.046 E30.07909
G1 X107.294 Y137.046 E30.15999
G1 X101.571 Y142.770 E30.89849
G1 X102.457 Y142.770 E30.97939
G1 X108.181 Y137.046 E31.71790
G1 X109.068 Y137.046 E31.79879
G1 X103.344 Y142.770 E32.53730
G1 X104.231 Y142.770 E32.61820
G1 X109.954 Y137.046 E33.35670
G1 X110.841 Y137.046 E33.43760
G1 X105.117 Y142.770 E34.17611
G1 X106.004 Y142.770 E34.25700
G1 X110.924 Y137.850 E34.89177
G1 X110.924 Y138.737 E34.97267
G1 X106.891 Y142.770 E35.49302
G1 X107.778 Y142.770 E35.57392
G1 X110.924 Y139.623 E35.97987
G1 X110.924 Y140.510 E36.06077
G1 X108.664 Y142.770 E36.35232
G1 X109.551 Y142.770 E36.43321
G1 X110.924 Y141.397 E36.61035
G1 X110.924 Y142.283 E36.69125
G1 X110.438 Y142.770 E36.75398
G1 E33.75398 F1800.00000
G92 E0
G1 X121.069 Y143.295 F7800.000
G1 E3.00000 F1800.00000
G1 F1800
G1 X121.069 Y136.808 E3.58989
G1 X157.870 Y136.808 E6.93614
G1 X157.870 Y143.295 E7.52604
G1 X121.144 Y143.295 E10.86547
G1 X120.445 Y143.920 F7800.000
G1 F1800
G1 X120.445 Y136.183 E11.56900
G1 X158.495 Y136.183 E15.02890
G1 X158.495 Y143.920 E15.73243
G1 X120.520 Y143.920 E19.18550
G1 X119.820 Y144.545 F7800.000
G1 F1800
G1 X119.820 Y135.558 E20.00268
G1 X159.120 Y135.558 E23.57621
G1 X159.120 Y144.545 E24.39339
G1 X119.895 Y144.545 E27.96011
G1 X120.037 Y144.094 F7800.000
G1 E24.96011 F1800.00000
G92 E0
G1 X121.938 Y137.189 F7800.000
G1 E3.00000 F1800.00000
G1 F1800
G1 X121.451 Y137.676 E3.06274
G1 X121.451 Y138.562 E3.14363
G1 X122.824 Y137.189 E3.32078
G1 X123.711 Y137.189 E3.40167
G1 X121.451 Y139.449 E3.69322
G1 X121.451 Y140.336 E3.77412
G1 X124.598 Y137.189 E4.18008
G1 X125.484 Y137.189 E4.26098
G1 X121.451 Y141.222 E4.78134
G1 X121.451 Y142.109 E4.86224
G1 X126.371 Y137.189 E5.49701
G1 X127.258 Y137.189 E5.57790
G1 X121.534 Y142.913 E6.31641
G1 X122.421 Y142.913 E6.39731
G1 X128.144 Y137.189 E7.13581
G1 X129.031 Y137.189 E7.21671
G1 X123.307 Y142.913 E7.95522
G1 X124.194 Y142.913 E8.03611
G1 X129.918 Y137.189 E8.77462
G1 X130.805 Y137.189 E8.85552
G1 X125.081 Y142.913 E9.59402
G1 X125.968 Y142.913 E9.67492
G1 X131.691 Y137.189 E10.41343
G1 X132.578 Y137.189 E10.49432
G1 X126.854 Y142.913 E11.23283
G1 X127.741 Y142.913 E11.31373
G1 X133.465 Y137.189 E12.05223
G1 X134.351 Y137.189 E12.13313
G1 X128.628 Y142.913 E12.87163
G1 X129.514 Y142.913 E12.95253
G1 X135.238 Y137.189 E13.69104
G1 X136.125 Y137.189 E13.77194
G1 X130.401 Y142.913 E14.51044
G1 X131.288 Y142.913 E14.59134
G1 X137.011 Y137.189 E15.32984
G1 X137.898 Y137.189 E15.41074
G1 X132.174 Y142.913 E16.14925
G1 X133.061 Y142.913 E16.23014
G1 X138.785 Y137.189 E16.96865
G1 X139.671 Y137.189 E17.04955
G1 X133.948 Y142.913 E17.78805
G1 X134.834 Y142.913 E17.86895
G1 X140.558 Y137.189 E18.60745
G1 X141.445 Y137.189 E18.68835
G1 X135.721 Y142.913 E19.42686
G1 X136.608 Y142.913 E19.50776
G1 X142.332 Y137.189 E20.24626
G1 X143.218 Y137.189 E20.32716
G1 X137.495 Y142.913 E21.06566
G1 X138.381 Y142.913 E21.14656
G1 X144.105 Y137.189 E21.88507
G1 X144.992 Y137.189 E21.96596
G1 X139.268 Y142.913 E22.70447
G1 X140.155 Y142.913 E22.78537
G1 X145.878 Y137.189 E23.52387
G1 X146.765 Y137.189 E23.60477
G1 X141.041 Y142.913 E24.34328
G1 X141.928 Y142.913 E24.42417
G1 X147.652 Y137.189 E25.16268
G1 X148.538 Y137.189 E25.24358
G1 X142.815 Y142.913 E25.98208
G1 X143.701 Y142.913 E26.06298
G1 X149.425 Y137.189 E26.80148
G1 X150.312 Y137.189 E26.88238
G1 X144.588 Y142.913 E27.62089
G1 X145.475 Y142.913 E27.70179
G1 X151.199 Y137.189 E28.44029
G1 X152.085 Y137.189 E28.52119
G1 X146.362 Y142.913 E29.25969
G1 X147.248 Y142.913 E29.34059
G1 X152.972 Y137.189 E30.07910
G1 X153.859 Y137.189 E30.15999
G1 X148.135 Y142.913 E30.89850
G1 X149.022 Y142.913 E30.97940
G1 X154.745 Y137.189 E31.71790
G1 X155.632 Y137.189 E31.79880
G1 X149.908 Y142.913 E32.53731
G1 X150.795 Y142.913 E32.61820
G1 X156.519 Y137.189 E33.35671
G1 X157.405 Y137.189 E33.43761
G1 X151.682 Y142.913 E34.17611
G1 X152.568 Y142.913 E34.25701
G1 X157.488 Y137.993 E34.89177
G1 X157.488 Y138.880 E34.97267
G1 X153.455 Y142.913 E35.49303
G1 X154.342 Y142.913 E35.57393
G1 X157.488 Y139.767 E35.97988
G1 X157.488 Y140.654 E36.06078
G1 X155.229 Y142.913 E36.35232
G1 X156.115 Y142.913 E36.43322
G1 X157.488 Y141.540 E36.61036
G1 X157.488 Y142.427 E36.69126
G1 X157.002 Y142.913 E36.75399
G1 E33.75399 F1800.00000
G92 E0
G1 X121.203 Y152.834 F7800.000
G1 E3.00000 F1800.00000
G1 F1800
G1 X158.004 Y152.834 E6.34625
G1 X158.004 Y159.321 E6.93614
G1 X121.203 Y159.321 E10.28239
G1 X121.203 Y152.909 E10.86547
G1 X120.578 Y152.209 F7800.000
G1 F1800
G1 X158.629 Y152.209 E14.32536
G1 X158.629 Y159.946 E15.02890
G1 X120.578 Y159.946 E18.48879
G1 X120.578 Y152.284 E19.18550
G1 X119.953 Y151.584 F7800.000
G1 F1800
G1 X159.253 Y151.584 E22.75904
G1 X159.253 Y160.571 E23.57621
G1 X119.953 Y160.571 E27.14975
G1 X119.953 Y151.659 E27.96011
G1 X120.452 Y151.621 F7800.000
G1 E24.96011 F1800.00000
G92 E0
G1 X122.071 Y153.215 F7800.000
G1 E3.00000 F1800.00000
G1 F1800
G1 X121.585 Y153.702 E3.06274
G1 X121.585 Y154.588 E3.14363
G1 X122.958 Y153.215 E3.32078
G1 X123.845 Y153.215 E3.40167
G1 X121.585 Y155.475 E3.69322
G1 X121.585 Y156.362 E3.77412
G1 X124.731 Y153.215 E4.18008
G1 X125.618 Y153.215 E4.26098
G1 X121.585 Y157.248 E4.78134
G1 X121.585 Y158.135 E4.86224
G1 X126.505 Y153.215 E5.49701
G1 X127.392 Y153.215 E5.57790
G1 X121.668 Y158.939 E6.31641
G1 X122.555 Y158.939 E6.39731
G1 X128.278 Y153.215 E7.13581
G1 X129.165 Y153.215 E7.21671
G1 X123.441 Y158.939 E7.95521
G1 X124.328 Y158.939 E8.03611
G1 X130.052 Y153.215 E8.77462
G1 X130.938 Y153.215 E8.85552
G1 X125.215 Y158.939 E9.59402
G1 X126.101 Y158.939 E9.67492
G1 X131.825 Y153.215 E10.41342
G1 X132.712 Y153.215 E10.49432
G1 X126.988 Y158.939 E11.23283
G1 X127.875 Y158.939 E11.31372
G1 X133.598 Y153.215 E12.05223
G1 X134.485 Y153.215 E12.13313
G1 X128.761 Y158.939 E12.87163
G1 X129.648 Y158.939 E12.95253
G1 X135.372 Y153.215 E13.69104
G1 X136.258 Y153.215 E13.77193
G1 X130.535 Y158.939 E14.51044
G1 X131.421 Y158.939 E14.59134
G1 X137.145 Y153.215 E15.32984
G1 X138.032 Y153.215 E15.41074
G1 X132.308 Y158.939 E16.14924
G1 X133.195 Y158.939 E16.23014
G1 X138.919 Y153.215 E16.96865
G1 X139.805 Y153.215 E17.04955
G1 X134.082 Y158.939 E17.78805
G1 X134.968 Y158.939 E17.86895
G1 X140.692 Y153.215 E18.60745
G1 X141.579 Y153.215 E18.68835
G1 X135.855 Y158.939 E19.42686
G1 X136.742 Y158.939 E19.50776
G1 X142.465 Y153.215 E20.24626
G1 X143.352 Y153.215 E20.32716
G1 X137.628 Y158.939 E21.06566
G1 X138.515 Y158.939 E21.14656
G1 X144.239 Y153.215 E21.88507
G1 X145.125 Y153.215 E21.96596
G1 X139.402 Y158.939 E22.70447
G1 X140.288 Y158.939 E22.78537
G1 X146.012 Y153.215 E23.52387
G1 X146.899 Y153.215 E23.60477
G1 X141.175 Y158.939 E24.34328
G1 X142.062 Y158.939 E24.42417
G1 X147.786 Y153.215 E25.16268
G1 X148.672 Y153.215 E25.24358
G1 X142.949 Y158.939 E25.98208
G1 X143.835 Y158.939 E26.06298
G1 X149.559 Y153.215 E26.80149
G1 X150.446 Y153.215 E26.88238
G1 X144.722 Y158.939 E27.62089
G1 X145.609 Y158.939 E27.70179
G1 X151.332 Y153.215 E28.44029
G1 X152.219 Y153.215 E28.52119
G1 X146.495 Y158.939 E29.25969
G1 X147.382 Y158.939 E29.34059
G1 X153.106 Y153.215 E30.07910
G1 X153.992 Y153.215 E30.16000
G1 X148.269 Y158.939 E30.89850
G1 X149.155 Y158.939 E30.97940
G1 X154.879 Y153.215 E31.71790
G1 X155.766 Y153.215 E31.79880
G1 X150.042 Y158.939 E32.53731
G1 X150.929 Y158.939 E32.61820
G1 X156.652 Y153.215 E33.35671
G1 X157.539 Y153.215 E33.43761
G1 X151.815 Y158.939 E34.17611
