; generated by Slic3r 1.3.0 on 2020-03-08 at 14:39:05

; external perimeters extrusion width = 0.55mm (4.37mm^3/s)
; perimeters extrusion width = 0.70mm (11.44mm^3/s)
; infill extrusion width = 0.62mm (13.45mm^3/s)
; solid infill extrusion width = 0.70mm (3.81mm^3/s)
; top infill extrusion width = 0.70mm (2.86mm^3/s)
; support material extrusion width = 0.55mm (8.74mm^3/s)

M107
M104 S200 ; set temperature
G28 ; home all axes
G1 Z5 F5000 ; lift nozzle

; Filament gcode

M109 S200 ; set temperature and wait for it to be reached
G21 ; set units to millimeters
G90 ; use absolute coordinates
M82 ; use absolute distances for extrusion
G92 E0
G1 Z0.350 F7800.000
G1 E-3.00000 F1800.00000
G92 E0
G1 X34.150 Y43.367 F7800.000
G1 E3.00000 F1800.00000
G1 F1800
G1 X34.926 Y42.831 E3.08576
G1 X35.179 Y42.679 E3.11255
G1 X36.021 Y42.246 E3.19872
G1 X36.896 Y41.899 E3.28428
G1 X37.518 Y41.710 E3.34337
G1 X37.804 Y41.638 E3.37015
G1 X38.734 Y41.468 E3.45613
G1 X39.276 Y41.410 E3.50572
G1 X62.570 Y39.896 E5.62832
G1 X63.000 Y39.882 E5.66742
G1 X160.000 Y39.882 E14.48759
G1 X162.259 Y40.279 E14.69613
G1 X164.941 Y42.094 E14.99065
G1 X167.260 Y44.691 E15.30722
G1 X167.816 Y45.394 E15.38873
G1 X168.328 Y46.186 E15.47442
G1 X168.761 Y47.028 E15.56058
G1 X169.108 Y47.903 E15.64615
G1 X169.297 Y48.525 E15.70524
G1 X169.496 Y49.450 E15.79123
G1 X169.603 Y50.389 E15.87718
G1 X169.625 Y51.007 E15.93343
G1 X169.625 Y121.007 E22.29850
G1 X169.586 Y121.864 E22.37656
G1 X166.204 Y161.484 E25.99227
G1 X165.617 Y163.701 E26.20082
G1 X164.308 Y165.585 E26.40936
G1 X162.436 Y166.909 E26.61790
G1 X159.664 Y167.545 E26.87656
G1 X112.659 Y167.971 E31.15084
G1 X72.659 Y167.971 E34.78802
G1 X70.400 Y167.575 E34.99656
G1 X67.759 Y165.806 E35.28559
G1 X32.773 Y127.359 E40.01233
G1 X32.184 Y126.620 E40.09826
G1 X31.672 Y125.828 E40.18403
G1 X31.238 Y124.985 E40.27021
G1 X30.892 Y124.111 E40.35574
G1 X30.703 Y123.489 E40.41482
G1 X30.631 Y123.203 E40.44163
G1 X30.461 Y122.273 E40.52759
G1 X30.397 Y121.625 E40.58680
G1 X30.375 Y121.007 E40.64304
G1 X30.383 Y50.683 E47.03757
G1 X30.461 Y49.741 E47.12354
G1 X30.632 Y48.811 E47.20952
G1 X30.892 Y47.903 E47.29537
G1 X31.239 Y47.028 E47.38092
G1 X31.364 Y46.762 E47.40770
G1 X31.824 Y45.933 E47.49386
G1 X32.360 Y45.157 E47.57963
G1 X32.970 Y44.436 E47.66553
G1 X33.429 Y43.977 E47.72457
G1 X34.092 Y43.414 E47.80363
G1 E44.80363 F1800.00000
G92 E0
G1 X68.975 Y55.532 F7800.000
G1 E3.00000 F1800.00000
G1 F1800
G1 X68.975 Y57.389 E3.16886
G1 X69.478 Y56.933 E3.23055
G1 X69.791 Y56.701 E3.26603
G1 X70.126 Y56.500 E3.30153
G1 X70.479 Y56.334 E3.33701
G1 X70.846 Y56.202 E3.37246
G1 X71.224 Y56.107 E3.40795
G1 X71.610 Y56.050 E3.44344
G1 X71.990 Y56.031 E3.47802
G1 X72.388 Y56.050 E3.51427
G1 X72.776 Y56.107 E3.54989
G1 X73.154 Y56.202 E3.58537
G1 X73.522 Y56.334 E3.62084
G1 X73.874 Y56.500 E3.65632
G1 X74.209 Y56.701 E3.69181
G1 X74.522 Y56.933 E3.72728
G1 X74.858 Y57.238 E3.76850
G1 X77.500 Y55.917 E4.03706
G1 X80.013 Y57.173 E4.29253
G1 X80.400 Y55.532 E4.44588
G1 X82.025 Y55.532 E4.59362
G1 X82.025 Y55.032 E4.63908
G1 X90.600 Y55.032 E5.41876
G1 X90.987 Y56.673 E5.57211
G1 X92.500 Y55.917 E5.72591
G1 X94.013 Y56.673 E5.87972
G1 X94.400 Y55.032 E6.03307
G1 X105.600 Y55.032 E7.05141
G1 X105.987 Y56.673 E7.20477
G1 X107.500 Y55.917 E7.35857
G1 X109.013 Y56.673 E7.51237
G1 X109.400 Y55.032 E7.66572
G1 X120.600 Y55.032 E8.68407
G1 X120.987 Y56.673 E8.83742
G1 X122.500 Y55.917 E8.99122
G1 X124.013 Y56.673 E9.14503
G1 X124.400 Y55.032 E9.29838
G1 X135.600 Y55.032 E10.31673
G1 X135.987 Y56.673 E10.47008
G1 X137.500 Y55.917 E10.62388
G1 X140.013 Y57.173 E10.87934
G1 X140.400 Y55.532 E11.03269
G1 X149.600 Y55.532 E11.86918
G1 X149.987 Y57.173 E12.02253
G1 X152.500 Y55.917 E12.27800
G1 X154.475 Y56.904 E12.47877
G1 X154.475 Y57.389 E12.52284
G1 X154.978 Y56.933 E12.58453
G1 X155.291 Y56.701 E12.62001
G1 X155.626 Y56.500 E12.65551
G1 X155.979 Y56.334 E12.69099
G1 X156.346 Y56.202 E12.72644
G1 X156.724 Y56.107 E12.76193
G1 X157.110 Y56.050 E12.79742
G1 X157.490 Y56.031 E12.83200
G1 X157.888 Y56.050 E12.86825
G1 X158.276 Y56.107 E12.90387
G1 X158.654 Y56.202 E12.93936
G1 X159.021 Y56.334 E12.97481
G1 X159.374 Y56.500 E13.01029
G1 X159.709 Y56.701 E13.04579
G1 X160.022 Y56.933 E13.08127
G1 X160.311 Y57.195 E13.11674
G1 X160.573 Y57.484 E13.15221
G1 X160.806 Y57.798 E13.18769
G1 X161.007 Y58.133 E13.22318
G1 X161.173 Y58.485 E13.25866
G1 X161.305 Y58.853 E13.29412
G1 X161.400 Y59.231 E13.32961
G1 X161.457 Y59.617 E13.36510
G1 X161.476 Y60.007 E13.40058
G1 X161.457 Y60.397 E13.43606
G1 X161.400 Y60.783 E13.47155
G1 X161.305 Y61.161 E13.50704
G1 X161.173 Y61.528 E13.54249
G1 X161.007 Y61.881 E13.57797
G1 X160.806 Y62.216 E13.61347
G1 X160.573 Y62.529 E13.64895
G1 X160.311 Y62.818 E13.68442
G1 X160.022 Y63.080 E13.71989
G1 X159.709 Y63.313 E13.75537
G1 X159.374 Y63.514 E13.79087
G1 X159.021 Y63.680 E13.82635
G1 X158.654 Y63.812 E13.86180
G1 X158.276 Y63.907 E13.89729
G1 X157.890 Y63.964 E13.93278
G1 X157.500 Y63.983 E13.96826
G1 X157.110 Y63.964 E14.00374
G1 X156.724 Y63.907 E14.03923
G1 X156.346 Y63.812 E14.07472
G1 X155.979 Y63.680 E14.11017
G1 X155.626 Y63.514 E14.14565
G1 X155.291 Y63.313 E14.18115
G1 X154.978 Y63.080 E14.21663
G1 X154.475 Y62.625 E14.27832
G1 X154.475 Y63.109 E14.32239
G1 X152.430 Y64.132 E14.53029
G1 X153.180 Y64.507 E14.60654
G1 X152.430 Y64.882 E14.68278
G1 X154.475 Y65.904 E14.89068
G1 X154.475 Y72.109 E15.45490
G1 X152.430 Y73.132 E15.66280
G1 X153.180 Y73.507 E15.73904
G1 X152.430 Y73.882 E15.81529
G1 X154.475 Y74.904 E16.02319
G1 X154.475 Y81.109 E16.58741
G1 X152.430 Y82.132 E16.79531
G1 X153.180 Y82.507 E16.87155
G1 X152.430 Y82.882 E16.94780
G1 X154.475 Y83.904 E17.15570
G1 X154.475 Y90.109 E17.71992
G1 X152.430 Y91.132 E17.92781
G1 X153.180 Y91.507 E18.00406
G1 X152.430 Y91.882 E18.08031
G1 X154.475 Y92.904 E18.28820
G1 X154.475 Y99.109 E18.85242
G1 X152.430 Y100.132 E19.06032
G1 X153.180 Y100.507 E19.13657
G1 X152.430 Y100.882 E19.21281
G1 X154.475 Y101.904 E19.42071
G1 X154.475 Y108.389 E20.01036
G1 X154.978 Y107.933 E20.07205
G1 X155.291 Y107.701 E20.10753
G1 X155.626 Y107.500 E20.14303
G1 X155.979 Y107.334 E20.17851
G1 X156.346 Y107.202 E20.21396
G1 X156.724 Y107.107 E20.24945
G1 X157.110 Y107.050 E20.28495
G1 X157.490 Y107.031 E20.31952
G1 X157.888 Y107.050 E20.35577
G1 X158.276 Y107.107 E20.39139
G1 X158.654 Y107.202 E20.42688
G1 X159.021 Y107.334 E20.46233
G1 X159.374 Y107.500 E20.49781
G1 X159.709 Y107.701 E20.53331
G1 X160.022 Y107.933 E20.56879
G1 X160.311 Y108.195 E20.60426
G1 X160.573 Y108.484 E20.63973
G1 X160.806 Y108.798 E20.67521
G1 X161.007 Y109.133 E20.71070
G1 X161.173 Y109.485 E20.74618
G1 X161.305 Y109.853 E20.78164
G1 X161.400 Y110.231 E20.81713
G1 X161.457 Y110.617 E20.85262
G1 X161.476 Y111.007 E20.88810
G1 X161.457 Y111.397 E20.92358
G1 X161.400 Y111.783 E20.95907
G1 X161.305 Y112.161 E20.99456
G1 X161.173 Y112.528 E21.03001
G1 X161.007 Y112.881 E21.06549
G1 X160.806 Y113.216 E21.10099
G1 X160.573 Y113.529 E21.13647
G1 X160.311 Y113.818 E21.17194
G1 X160.022 Y114.080 E21.20741
G1 X159.709 Y114.313 E21.24289
G1 X159.374 Y114.514 E21.27839
G1 X159.021 Y114.680 E21.31387
G1 X158.654 Y114.812 E21.34932
G1 X158.276 Y114.907 E21.38481
G1 X157.890 Y114.964 E21.42030
G1 X157.500 Y114.983 E21.45578
G1 X157.110 Y114.964 E21.49126
G1 X156.724 Y114.907 E21.52675
G1 X156.346 Y114.812 E21.56224
G1 X155.979 Y114.680 E21.59769
G1 X155.626 Y114.514 E21.63317
G1 X155.291 Y114.313 E21.66867
G1 X154.978 Y114.080 E21.70415
G1 X154.475 Y113.625 E21.76584
G1 X154.475 Y116.482 E22.02563
G1 X149.270 Y116.482 E22.49892
G1 X145.000 Y114.347 E22.93301
G1 X139.730 Y116.982 E23.46876
G1 X135.270 Y116.982 E23.87433
G1 X131.987 Y115.340 E24.20806
G1 X131.600 Y116.982 E24.36141
G1 X128.400 Y116.982 E24.65232
G1 X128.013 Y115.340 E24.80567
G1 X124.730 Y116.982 E25.13940
G1 X120.270 Y116.982 E25.54497
G1 X116.987 Y115.340 E25.87870
G1 X116.600 Y116.982 E26.03205
G1 X113.400 Y116.982 E26.32296
G1 X113.013 Y115.340 E26.47632
G1 X109.730 Y116.982 E26.81005
G1 X105.270 Y116.982 E27.21562
G1 X101.987 Y115.340 E27.54935
G1 X101.600 Y116.982 E27.70270
G1 X98.400 Y116.982 E27.99361
G1 X98.013 Y115.340 E28.14696
G1 X94.730 Y116.982 E28.48069
G1 X90.270 Y116.982 E28.88626
G1 X86.987 Y115.340 E29.21999
G1 X86.600 Y116.982 E29.37334
G1 X83.400 Y116.982 E29.66426
G1 X83.013 Y115.340 E29.81761
G1 X80.730 Y116.482 E30.04968
G1 X75.025 Y116.482 E30.56843
G1 X75.025 Y113.625 E30.82822
G1 X74.522 Y114.080 E30.88992
G1 X74.209 Y114.313 E30.92540
G1 X73.874 Y114.514 E30.96089
G1 X73.522 Y114.680 E30.99636
G1 X73.154 Y114.812 E31.03183
G1 X72.776 Y114.907 E31.06731
G1 X72.390 Y114.964 E31.10281
G1 X72.000 Y114.983 E31.13828
G1 X71.610 Y114.964 E31.17376
G1 X71.224 Y114.907 E31.20926
G1 X70.846 Y114.812 E31.24475
G1 X70.479 Y114.680 E31.28020
G1 X70.126 Y114.514 E31.31568
G1 X69.791 Y114.313 E31.35117
G1 X69.478 Y114.080 E31.38665
G1 X68.975 Y113.625 E31.44834
G1 X68.975 Y114.859 E31.56061
G1 X65.730 Y116.482 E31.89048
G1 X63.975 Y116.482 E32.05009
G1 X63.975 Y116.982 E32.09555
G1 X60.270 Y116.982 E32.43245
G1 X56.987 Y115.340 E32.76618
G1 X56.600 Y116.982 E32.91953
G1 X53.400 Y116.982 E33.21044
G1 X53.013 Y115.340 E33.36379
G1 X49.730 Y116.982 E33.69752
G1 X45.270 Y116.982 E34.10310
G1 X44.025 Y116.359 E34.22964
G1 X44.025 Y57.654 E39.56766
G1 X47.500 Y55.917 E39.92093
G1 X49.013 Y56.673 E40.07473
G1 X49.400 Y55.032 E40.22808
G1 X60.600 Y55.032 E41.24643
G1 X60.987 Y56.673 E41.39978
G1 X62.500 Y55.917 E41.55358
G1 X65.013 Y57.173 E41.80904
G1 X65.400 Y55.532 E41.96240
G1 X68.900 Y55.532 E42.28061
G1 E39.28061 F1800.00000
G92 E0
G1 X130.717 Y114.007 F7800.000
G1 E3.00000 F1800.00000
G1 F1800
G1 X137.500 Y110.616 E3.68954
G1 X144.283 Y114.007 E4.37907
G1 X140.583 Y115.857 E4.75523
G1 X140.350 Y115.857 E4.77638
G1 X140.350 Y115.973 E4.78695
G1 X139.583 Y116.357 E4.86497
G1 X135.417 Y116.357 E5.24371
G1 X130.784 Y114.040 E5.71470
G1 X130.378 Y113.640 F7800.000
G1 E2.71470 F1800.00000
G92 E0
G1 X130.717 Y105.007 F7800.000
G1 E3.00000 F1800.00000
G1 F1800
G1 X137.500 Y101.616 E3.68954
G1 X144.283 Y105.007 E4.37907
G1 X137.500 Y108.398 E5.06861
G1 X130.784 Y105.040 E5.75133
G1 X130.348 Y104.670 F7800.000
G1 E2.75133 F1800.00000
G92 E0
G1 X136.783 Y109.507 F7800.000
G1 E3.00000 F1800.00000
G1 F1800
G1 X130.000 Y112.898 E3.68954
G1 X123.217 Y109.507 E4.37907
G1 X130.000 Y106.116 E5.06861
G1 X136.716 Y109.473 E5.75133
G1 X137.106 Y109.888 F7800.000
G1 E2.75133 F1800.00000
G92 E0
G1 X136.783 Y100.507 F7800.000
G1 E3.00000 F1800.00000
G1 F1800
G1 X130.000 Y103.898 E3.68954
G1 X123.217 Y100.507 E4.37907
G1 X130.000 Y97.116 E5.06861
G1 X136.716 Y100.473 E5.75133
G1 X137.152 Y100.843 F7800.000
G1 E2.75133 F1800.00000
G92 E0
G1 X130.717 Y96.007 F7800.000
G1 E3.00000 F1800.00000
G1 F1800
G1 X137.500 Y92.616 E3.68954
G1 X144.283 Y96.007 E4.37907
G1 X137.500 Y99.398 E5.06861
G1 X130.784 Y96.040 E5.75133
G1 X130.348 Y95.670 F7800.000
G1 E2.75133 F1800.00000
G92 E0
G1 X138.217 Y91.507 F7800.000
G1 E3.00000 F1800.00000
G1 F1800
G1 X145.000 Y88.116 E3.68954
G1 X151.783 Y91.507 E4.37907
G1 X145.000 Y94.898 E5.06861
G1 X138.284 Y91.540 E5.75133
G1 X137.848 Y91.170 F7800.000
G1 E2.75133 F1800.00000
G92 E0
G1 X145.717 Y87.007 F7800.000
G1 E3.00000 F1800.00000
G1 F1800
G1 X152.500 Y83.616 E3.68954
G1 X153.850 Y84.291 E3.82678
G1 X153.850 Y89.723 E4.32077
G1 X152.500 Y90.398 E4.45801
G1 X145.784 Y87.040 E5.14073
G1 X145.386 Y86.633 F7800.000
G1 E2.14073 F1800.00000
G92 E0
G1 X151.783 Y82.507 F7800.000
G1 E3.00000 F1800.00000
G1 F1800
G1 X145.000 Y85.898 E3.68954
G1 X138.217 Y82.507 E4.37907
G1 X145.000 Y79.116 E5.06861
G1 X151.716 Y82.473 E5.75133
G1 X152.152 Y82.843 F7800.000
G1 E2.75133 F1800.00000
G92 E0
G1 X153.850 Y80.723 F7800.000
G1 E3.00000 F1800.00000
G1 F1800
G1 X152.500 Y81.398 E3.13724
G1 X145.717 Y78.007 E3.82678
G1 X152.500 Y74.616 E4.51632
G1 X153.850 Y75.291 E4.65356
G1 X153.850 Y80.648 E5.14073
G1 X154.036 Y81.187 F7800.000
G1 E2.14073 F1800.00000
G92 E0
G1 X151.783 Y73.507 F7800.000
G1 E3.00000 F1800.00000
G1 F1800
G1 X145.000 Y76.898 E3.68954
G1 X138.217 Y73.507 E4.37907
G1 X145.000 Y70.116 E5.06861
G1 X151.716 Y73.473 E5.75133
G1 X152.152 Y73.843 F7800.000
G1 E2.75133 F1800.00000
G92 E0
G1 X153.850 Y71.723 F7800.000
G1 E3.00000 F1800.00000
G1 F1800
G1 X152.500 Y72.398 E3.13724
G1 X145.717 Y69.007 E3.82678
G1 X152.500 Y65.616 E4.51632
G1 X153.850 Y66.291 E4.65356
G1 X153.850 Y71.648 E5.14073
G1 X154.036 Y72.187 F7800.000
G1 E2.14073 F1800.00000
G92 E0
G1 X151.783 Y64.507 F7800.000
G1 E3.00000 F1800.00000
G1 F1800
G1 X145.000 Y67.898 E3.68954
G1 X138.217 Y64.507 E4.37907
G1 X145.000 Y61.116 E5.06861
G1 X151.716 Y64.473 E5.75133
G1 X152.152 Y64.843 F7800.000
G1 E2.75133 F1800.00000
G92 E0
G1 X153.850 Y62.723 F7800.000
G1 E3.00000 F1800.00000
G1 F1800
G1 X152.500 Y63.398 E3.13724
G1 X145.717 Y60.007 E3.82678
G1 X152.500 Y56.616 E4.51632
G1 X153.850 Y57.291 E4.65356
G1 X153.850 Y59.452 E4.85009
G1 X154.179 Y59.492 E4.88023
G1 X154.294 Y59.034 E4.92319
G1 X154.405 Y58.725 E4.95308
G1 X154.545 Y58.427 E4.98297
G1 X154.714 Y58.145 E5.01288
G1 X154.910 Y57.881 E5.04277
G1 X155.131 Y57.638 E5.07267
G1 X155.374 Y57.417 E5.10256
G1 X155.639 Y57.221 E5.13246
G1 X155.921 Y57.052 E5.16236
G1 X156.218 Y56.912 E5.19226
G1 X156.527 Y56.801 E5.22214
G1 X156.846 Y56.721 E5.25204
G1 X157.172 Y56.673 E5.28195
G1 X157.491 Y56.657 E5.31102
G1 X157.828 Y56.672 E5.34170
G1 X158.154 Y56.721 E5.37164
G1 X158.473 Y56.801 E5.40154
G1 X158.782 Y56.912 E5.43142
G1 X159.079 Y57.052 E5.46132
G1 X159.361 Y57.221 E5.49123
G1 X159.626 Y57.417 E5.52113
G1 X159.869 Y57.638 E5.55102
G1 X160.090 Y57.881 E5.58091
G1 X160.286 Y58.145 E5.61081
G1 X160.455 Y58.427 E5.64071
G1 X160.595 Y58.725 E5.67060
G1 X160.706 Y59.034 E5.70050
G1 X160.786 Y59.353 E5.73040
G1 X160.834 Y59.678 E5.76030
G1 X160.850 Y60.007 E5.79020
G1 X160.834 Y60.335 E5.82010
G1 X160.786 Y60.661 E5.85000
G1 X160.706 Y60.980 E5.87990
G1 X160.595 Y61.289 E5.90978
G1 X160.455 Y61.586 E5.93968
G1 X160.286 Y61.868 E5.96958
G1 X160.090 Y62.132 E5.99948
G1 X159.869 Y62.376 E6.02937
G1 X159.626 Y62.597 E6.05927
G1 X159.361 Y62.793 E6.08917
G1 X159.079 Y62.962 E6.11907
G1 X158.782 Y63.102 E6.14897
G1 X158.473 Y63.213 E6.17885
G1 X158.154 Y63.293 E6.20875
G1 X157.828 Y63.341 E6.23865
G1 X157.500 Y63.357 E6.26855
G1 X157.172 Y63.341 E6.29845
G1 X156.846 Y63.293 E6.32835
G1 X156.527 Y63.213 E6.35825
G1 X156.218 Y63.102 E6.38813
G1 X155.921 Y62.962 E6.41803
G1 X155.639 Y62.793 E6.44794
G1 X155.374 Y62.597 E6.47784
G1 X155.131 Y62.376 E6.50773
G1 X154.910 Y62.132 E6.53762
G1 X154.714 Y61.868 E6.56752
G1 X154.545 Y61.586 E6.59742
G1 X154.405 Y61.289 E6.62732
G1 X154.294 Y60.980 E6.65720
G1 X154.179 Y60.521 E6.70016
G1 X153.850 Y60.562 E6.73031
G1 X153.850 Y62.648 E6.92001
G1 X153.978 Y63.206 F7800.000
G1 E3.92001 F1800.00000
G92 E0
G1 X149.251 Y56.773 F7800.000
G1 E3.00000 F1800.00000
G1 F1800
G1 X145.000 Y58.898 E3.43212
G1 X140.749 Y56.773 E3.86424
G1 X140.895 Y56.157 E3.92180
G1 X149.105 Y56.157 E4.66835
G1 X149.233 Y56.700 E4.71908
G1 X149.612 Y57.118 F7800.000
G1 E1.71908 F1800.00000
G92 E0
G1 X144.283 Y60.007 F7800.000
G1 E3.00000 F1800.00000
G1 F1800
G1 X137.500 Y63.398 E3.68954
G1 X130.717 Y60.007 E4.37907
G1 X137.500 Y56.616 E5.06861
G1 X144.216 Y59.973 E5.75133
G1 X144.652 Y60.343 F7800.000
G1 E2.75133 F1800.00000
G92 E0
G1 X135.251 Y56.273 F7800.000
G1 E3.00000 F1800.00000
G1 F1800
G1 X130.000 Y58.898 E3.53378
G1 X124.749 Y56.273 E4.06756
G1 X124.895 Y55.657 E4.12512
G1 X135.105 Y55.657 E5.05353
G1 X135.233 Y56.200 E5.10427
G1 X135.614 Y56.617 F7800.000
G1 E2.10427 F1800.00000
G92 E0
G1 X136.783 Y64.507 F7800.000
G1 E3.00000 F1800.00000
G1 F1800
G1 X130.000 Y67.898 E3.68954
G1 X123.217 Y64.507 E4.37907
G1 X130.000 Y61.116 E5.06861
G1 X136.716 Y64.473 E5.75133
G1 X137.152 Y64.843 F7800.000
G1 E2.75133 F1800.00000
G92 E0
G1 X129.283 Y60.007 F7800.000
G1 E3.00000 F1800.00000
G1 F1800
G1 X122.500 Y63.398 E3.68954
G1 X115.717 Y60.007 E4.37907
G1 X122.500 Y56.616 E5.06861
G1 X129.216 Y59.973 E5.75133
